svg/other/rake_fill.svg

<?xml version="1.0" encoding="UTF-8"?>
<svg width="24px" height="24px" viewBox="0 0 24 24" version="1.1" xmlns="http://www.w3.org/2000/svg" xmlns:xlink="http://www.w3.org/1999/xlink">
    <title>rake_fill</title>
    <g id="Icon" stroke="none" stroke-width="1" fill="none" fill-rule="evenodd">
        <g id="Other" transform="translate(0.000000, -144.000000)" fill-rule="nonzero">
            <g id="rake_fill" transform="translate(0.000000, 144.000000)">
                <path d="M24,0 L24,24 L0,24 L0,0 L24,0 Z M12.5935,23.2578 L12.5819,23.2595 L12.5109,23.295 L12.4919,23.2987 L12.4767,23.295 L12.4057,23.2595 C12.3958,23.2564 12.387,23.259 12.3821,23.2649 L12.378,23.2758 L12.3609,23.7031 L12.3659,23.7235 L12.3769,23.7357 L12.4805,23.8097 L12.4953,23.8136 L12.5071,23.8097 L12.6107,23.7357 L12.6233,23.7197 L12.6267,23.7031 L12.6096,23.2758 C12.6076,23.2657 12.601,23.2593 12.5935,23.2578 Z M12.8584,23.1453 L12.8445,23.1473 L12.6598,23.2397 L12.6499,23.2499 L12.6472,23.2611 L12.6651,23.6906 L12.6699,23.7034 L12.6784,23.7105 L12.8793,23.8032 C12.8914,23.8069 12.9022,23.803 12.9078,23.7952 L12.9118,23.7812 L12.8777,23.1665 C12.8753,23.1546 12.8674,23.147 12.8584,23.1453 Z M12.143,23.1473 C12.1332,23.1424 12.1222,23.1453 12.1156,23.1526 L12.1099,23.1665 L12.0758,23.7812 C12.0751,23.7927 12.0828,23.8019 12.0926,23.8046 L12.1083,23.8032 L12.3092,23.7105 L12.3186,23.7024 L12.3225,23.6906 L12.3404,23.2611 L12.3372,23.2485 L12.3278,23.2397 L12.143,23.1473 Z" id="MingCute"></path>
                <path d="M4.57531,10.9393 C3.98952,10.3535 3.03977,10.3535 2.45399,10.9393 C1.8682,11.5251 1.8682,12.4748 2.45399,13.0606 L3.8682,14.4748 C5.23504,15.8416 7.45111,15.8416 8.81795,14.4748 L10.2239,13.0689 L10.2322,13.0606 L10.2404,13.0524 L10.5857,12.707 L18.0103,20.1317 C18.5961,20.7175 19.5459,20.7175 20.1317,20.1317 C20.7175,19.5459 20.7175,18.5962 20.1317,18.0104 L12.707,10.5857 L13.0606,10.2322 L14.4748,8.81795 C15.8416,7.45112 15.8416,5.23504 14.4748,3.8682 L13.0606,2.45399 C12.4748,1.8682 11.5251,1.8682 10.9393,2.45399 C10.3535,3.03977 10.3535,3.98952 10.9393,4.57531 L12.3535,5.98952 C12.5487,6.18478 12.5487,6.50137 12.3535,6.69663 L11.9999,7.05018 L10.2322,5.28241 C9.64638,4.69662 8.69664,4.69662 8.11085,5.28241 C7.52506,5.8682 7.52506,6.81794 8.11085,7.40373 L9.87862,9.1715 L9.17148,9.87864 L7.40374,8.1109 C6.81795,7.52511 5.8682,7.52511 5.28242,8.1109 C4.69663,8.69669 4.69663,9.64643 5.28242,10.2322 L7.05016,12 L6.69663,12.3535 C6.50137,12.5487 6.18478,12.5487 5.98952,12.3535 L4.57531,10.9393 Z" id="路径" fill="#09244B"></path>
            </g>
        </g>
    </g>
</svg>

<svg xmlns="http://www.w3.org/2000/svg" width="24" height="24"><g fill="none" fill-rule="nonzero"><path d="M24 0v24H0V0h24ZM12.594 23.258l-.012.002-.071.035-.02.004-.014-.004-.071-.036c-.01-.003-.019 0-.024.006l-.004.01-.017.428.005.02.01.013.104.074.015.004.012-.004.104-.074.012-.016.004-.017-.017-.427c-.002-.01-.009-.017-.016-.018Zm.264-.113-.014.002-.184.093-.01.01-.003.011.018.43.005.012.008.008.201.092c.012.004.023 0 .029-.008l.004-.014-.034-.614c-.003-.012-.01-.02-.02-.022Zm-.715.002a.023.023 0 0 0-.027.006l-.006.014-.034.614c0 .012.007.02.017.024l.015-.002.201-.093.01-.008.003-.011.018-.43-.003-.012-.01-.01-.184-.092Z"/><path fill="#09244B" d="M4.575 10.94a1.5 1.5 0 1 0-2.121 2.12l1.414 1.415a3.5 3.5 0 0 0 4.95 0l1.406-1.406.008-.008.008-.009.346-.345 7.424 7.425a1.5 1.5 0 0 0 2.122-2.122l-7.425-7.424.354-.354 1.414-1.414a3.5 3.5 0 0 0 0-4.95L13.06 2.454a1.5 1.5 0 1 0-2.122 2.121l1.415 1.415a.5.5 0 0 1 0 .707L12 7.05l-1.768-1.768a1.5 1.5 0 0 0-2.121 2.122l1.768 1.768-.708.707L7.404 8.11a1.5 1.5 0 0 0-2.122 2.121L7.05 12l-.353.354a.5.5 0 0 1-.707 0l-1.415-1.415Z"/></g></svg>
